Sources/FrostedUI/Resources/Icons.xcassets/listNumber20.imageset/list-number-20.svg

<svg width="20" height="20" viewBox="0 0 20 20" fill="none" xmlns="http://www.w3.org/2000/svg" data-fui-icon="true">
  <path
    d="M4.67383 11.1252C5.72127 11.1252 6.75966 11.8819 6.75977 13.0324C6.75975 13.6822 6.43568 14.1635 6.07324 14.505C5.72732 14.8309 5.28872 15.0844 4.9375 15.2834C4.93302 15.2859 4.92828 15.2886 4.92383 15.2912H6.25C6.66404 15.2912 6.99973 15.6272 7 16.0412C7 16.4554 6.66421 16.7912 6.25 16.7912H3.125C2.71079 16.7912 2.375 16.4554 2.375 16.0412C2.3752 15.4012 2.75584 14.9595 3.09766 14.6769C3.43175 14.4008 3.86526 14.1658 4.19727 13.9777C4.56711 13.7681 4.85009 13.5968 5.04492 13.4132C5.2229 13.2455 5.25975 13.1321 5.25977 13.0324C5.25971 12.9577 5.22613 12.8664 5.12695 12.7804C5.02616 12.6932 4.86808 12.6252 4.67383 12.6252C4.49043 12.6252 4.28914 12.6994 4.10547 12.8068C4.01913 12.8573 3.94854 12.9076 3.90137 12.9445C3.87813 12.9627 3.86098 12.9773 3.85156 12.9855L3.84668 12.9884C3.54517 13.2722 3.07106 13.2586 2.78711 12.9572C2.50337 12.6557 2.51794 12.1806 2.81934 11.8966L2.82031 11.8957L2.82227 11.8947C2.82339 11.8936 2.82477 11.8921 2.82617 11.8908L2.86914 11.8517C2.89553 11.8289 2.932 11.7987 2.97656 11.7638C3.06544 11.6943 3.19243 11.6032 3.34863 11.5119C3.65079 11.3352 4.11985 11.1252 4.67383 11.1252ZM16.875 13.2082C17.2892 13.2082 17.6249 13.544 17.625 13.9582C17.625 14.3724 17.2892 14.7082 16.875 14.7082H9.79199C9.37778 14.7082 9.04199 14.3724 9.04199 13.9582C9.04209 13.544 9.37784 13.2082 9.79199 13.2082H16.875ZM3.84766 12.9894H3.84668V12.9904L3.8457 12.9914L3.84375 12.9923L3.84668 12.9884L3.84766 12.9894ZM4.86719 3.29019C5.08131 3.18082 5.33768 3.18017 5.55469 3.29312C5.80264 3.42225 5.95794 3.6786 5.95801 3.95816V8.12515C5.95783 8.53922 5.62211 8.87515 5.20801 8.87515C4.79405 8.87498 4.45818 8.53911 4.45801 8.12515V5.39859L3.55469 6.0314C3.21547 6.26845 2.74821 6.1858 2.51074 5.84683C2.27331 5.50751 2.35602 5.03942 2.69531 4.80191L4.77832 3.3439L4.86719 3.29019ZM16.875 5.29117C17.289 5.29117 17.6247 5.62719 17.625 6.04117C17.625 6.45538 17.2892 6.79117 16.875 6.79117H9.79199C9.37778 6.79117 9.04199 6.45538 9.04199 6.04117C9.04227 5.62719 9.37795 5.29117 9.79199 5.29117H16.875Z"
    fill="currentColor"
  />
</svg>

<svg xmlns="http://www.w3.org/2000/svg" width="20" height="20" fill="none" data-fui-icon="true" viewBox="0 0 20 20"><path fill="currentColor" d="M4.674 11.125c1.047 0 2.086.757 2.086 1.907 0 .65-.324 1.132-.687 1.473-.346.326-.784.58-1.136.778l-.013.008H6.25a.75.75 0 0 1 0 1.5H3.125a.75.75 0 0 1-.75-.75c0-.64.38-1.082.723-1.364.334-.276.767-.511 1.1-.7.37-.209.652-.38.847-.564.178-.168.215-.28.215-.38 0-.075-.034-.167-.133-.253a.7.7 0 0 0-.453-.155c-.184 0-.385.074-.569.182a2 2 0 0 0-.253.178l-.005.003a.75.75 0 1 1-1.028-1.091l.001-.001.002-.001.004-.004.043-.04.108-.087c.088-.07.215-.16.372-.252.302-.177.77-.387 1.325-.387m12.201 2.083a.75.75 0 0 1 0 1.5H9.792a.75.75 0 0 1 0-1.5zM3.848 12.99h-.001v.001l-.001.001-.002.001.003-.004zm1.02-9.699a.75.75 0 0 1 1.09.668v4.167a.75.75 0 0 1-1.5 0V5.4l-.903.632a.75.75 0 0 1-.86-1.23l2.083-1.457zm12.007 2.001a.75.75 0 0 1 0 1.5H9.792a.75.75 0 0 1 0-1.5z"/></svg>
